img/content/linkedin.svg

<svg width="14" height="14" viewBox="0 0 14 14" fill="none" xmlns="http://www.w3.org/2000/svg">
<path d="M9.33334 4.66675C10.2616 4.66675 11.1518 5.0355 11.8082 5.69187C12.4646 6.34825 12.8333 7.23849 12.8333 8.16675V12.2501H10.5V8.16675C10.5 7.85733 10.3771 7.56058 10.1583 7.34179C9.9395 7.123 9.64276 7.00008 9.33334 7.00008C9.02392 7.00008 8.72717 7.123 8.50838 7.34179C8.28959 7.56058 8.16667 7.85733 8.16667 8.16675V12.2501H5.83334V8.16675C5.83334 7.23849 6.20208 6.34825 6.85846 5.69187C7.51484 5.0355 8.40508 4.66675 9.33334 4.66675Z" fill="#101010"/>
<path d="M1.16667 5.25H3.5V12.25H1.16667V5.25Z" fill="#101010"/>
<path d="M2.33333 3.50008C2.97767 3.50008 3.5 2.97775 3.5 2.33341C3.5 1.68908 2.97767 1.16675 2.33333 1.16675C1.689 1.16675 1.16667 1.68908 1.16667 2.33341C1.16667 2.97775 1.689 3.50008 2.33333 3.50008Z" fill="#101010"/>
</svg>

<svg width="14" height="14" viewBox="0 0 14 14" xmlns="http://www.w3.org/2000/svg" fill="none"><path d="M9.333 4.667c.928 0 1.818.369 2.475 1.025.656.656 1.025 1.547 1.025 2.475v4.083h-2.333v-4.083c0-.309-.123-.606-.342-.825-.219-.219-.516-.342-.825-.342-.309 0-.606.123-.825.342-.219.219-.342.516-.342.825v4.083h-2.333v-4.083c0-.928.369-1.819 1.025-2.475.656-.656 1.547-1.025 2.475-1.025zM1.167 5.25h2.333v7h-2.333v-7zM2.333 3.5c.644 0 1.167-.522 1.167-1.167 0-.644-.522-1.167-1.167-1.167-.644 0-1.167.522-1.167 1.167 0 .644.522 1.167 1.167 1.167z" fill="#101010"/></svg>
